X:1
T: Dongjia chimi wo chikang
N: C1501
O: China,Sichuan, Cangxi
S: II, 237, 1)]
R: Shange. Suku]
M: 2/4
L: 1/16
K: G
e2e2e2ga | b6a2 | gab4a2 | g2ge-e4 |
e2e2e2g2 | g2a2b2a2 | e2e2e2g2 | g2a2b2a2 |
e2e2g2a2- | a6b2 | gaB2g3e | e2e6

@@@ Tune index: 6556
